img/buyitback/globe.svg

<svg width="24" height="24" viewBox="0 0 24 24" fill="none" xmlns="http://www.w3.org/2000/svg">
<path fill-rule="evenodd" clip-rule="evenodd" d="M12 22C17.5228 22 22 17.5228 22 12C22 6.47715 17.5228 2 12 2C6.47715 2 2 6.47715 2 12C2 17.5228 6.47715 22 12 22ZM20.5 12C20.5 12.7789 20.3952 13.5334 20.199 14.25H16.3856C16.4605 13.5268 16.5 12.7737 16.5 12C16.5 11.2263 16.4605 10.4732 16.3856 9.75H20.199C20.3952 10.4666 20.5 11.2211 20.5 12ZM16.1729 8.25H19.6302C18.628 6.21475 16.8356 4.63868 14.6533 3.9223C15.3254 5.01433 15.8561 6.51056 16.1729 8.25ZM9.34674 3.9223C7.16445 4.63868 5.37196 6.21475 4.36981 8.25H7.8271C8.14395 6.51056 8.67465 5.01433 9.34674 3.9223ZM7.61436 9.75H3.80098C3.60477 10.4666 3.5 11.2211 3.5 12C3.5 12.7789 3.60477 13.5334 3.80098 14.25H7.61436C7.53954 13.5268 7.5 12.7737 7.5 12C7.5 11.2263 7.53954 10.4732 7.61436 9.75ZM7.8271 15.75H4.36981C5.37197 17.7853 7.16445 19.3613 9.34674 20.0777C8.67465 18.9857 8.14395 17.4894 7.8271 15.75ZM14.6533 20.0777C16.8356 19.3613 18.628 17.7853 19.6302 15.75H16.1729C15.8561 17.4894 15.3254 18.9857 14.6533 20.0777ZM15 12C15 12.7824 14.9568 13.5359 14.877 14.25H9.12297C9.04322 13.5359 9 12.7824 9 12C9 11.2176 9.04322 10.4641 9.12297 9.75H14.877C14.9568 10.4641 15 11.2176 15 12ZM14.6459 8.25C14.4397 7.21464 14.1535 6.29861 13.8141 5.54448C13.042 3.82873 12.2847 3.5 12 3.5C11.7153 3.5 10.958 3.82873 10.1859 5.54448C9.84654 6.29861 9.56027 7.21464 9.35406 8.25H14.6459ZM9.35406 15.75C9.56027 16.7854 9.84654 17.7014 10.1859 18.4555C10.958 20.1713 11.7153 20.5 12 20.5C12.2847 20.5 13.042 20.1713 13.8141 18.4555C14.1535 17.7014 14.4397 16.7854 14.6459 15.75H9.35406Z" fill="#2A179C"/>
</svg>

<svg width="24" height="24" fill="none" xmlns="http://www.w3.org/2000/svg"><path fill-rule="evenodd" clip-rule="evenodd" d="M12 22c5.523 0 10-4.477 10-10S17.523 2 12 2 2 6.477 2 12s4.477 10 10 10Zm8.5-10a8.51 8.51 0 0 1-.301 2.25h-3.813a22.128 22.128 0 0 0 0-4.5h3.813A8.51 8.51 0 0 1 20.5 12Zm-4.327-3.75h3.457a8.525 8.525 0 0 0-4.977-4.328c.672 1.092 1.203 2.589 1.52 4.328ZM9.347 3.922A8.525 8.525 0 0 0 4.37 8.25h3.457c.317-1.74.848-3.236 1.52-4.328ZM7.614 9.75H3.801A8.51 8.51 0 0 0 3.5 12c0 .779.105 1.533.301 2.25h3.813A21.9 21.9 0 0 1 7.5 12c0-.774.04-1.527.114-2.25Zm.213 6H4.37a8.525 8.525 0 0 0 4.977 4.328c-.672-1.092-1.203-2.589-1.52-4.328Zm6.826 4.328a8.525 8.525 0 0 0 4.977-4.328h-3.457c-.317 1.74-.848 3.236-1.52 4.328ZM15 12c0 .782-.043 1.536-.123 2.25H9.123A20.31 20.31 0 0 1 9 12c0-.782.043-1.536.123-2.25h5.754c.08.714.123 1.468.123 2.25Zm-.354-3.75c-.206-1.035-.493-1.951-.832-2.706C13.042 3.83 12.284 3.5 12 3.5c-.285 0-1.042.329-1.814 2.044-.34.755-.626 1.67-.832 2.706h5.292Zm-5.292 7.5c.206 1.035.493 1.951.832 2.706.772 1.715 1.53 2.044 1.814 2.044.285 0 1.042-.329 1.814-2.044.34-.755.626-1.67.832-2.706H9.354Z" fill="#2A179C"/></svg>
